X:134
T:Reel 134
M:4/4
K:Amix
L:1/8
CD|EA,A,F, G,2CD|EA,A,C D2CD|EA, (3G,G,G, B,G,B,D|CA,B,A, G,E,D,z|EA, (3CB,A, G,2 (3B,A,G, |EA, (3A,A,A,  (3EFG DF|EA, (3CB,A, B,G,B,D|EFGE D2|EF|GFGA GFEF|GEDC B,CDF|EG (3GFG EG (3BcB |AGFG E2AB|GFGE GEDF|GE (3EEG E2AB|cABA GEFD| (3EFG FD B,C|
